X: 31243
T: Paddy Fahey's
R: reel
M: 4/4
K: Dminor
DE|:"*"FA,DE FA[dD]e|fedc AGFE|FA,DE FAGF|EGcG EGCE|
FA,DE FA[dD]e|fec2 d3e|^fgag fdAG|1 ~=F2 EG FDDE:|2 ~=F2 EG FDD2||
K:DMix
|:fgag fd{e}de|dcAB cAG2|A[Dd][dD]^c defg|~a2 fd adfd|
fgag fd{e}de|dcAB ~c3A|~d3e fded|1 cAGE [D4A,4]:|2 cAGE [D3A,3]E||

